labsync-docs/static/img/LabSyncLogo.svg

<svg width="428" height="308" viewBox="1.4210854715202004e-14 2.0914599895477295 127.99700927734374 92.10999417304993" version="1.1" id="svg5" inkscape:version="1.1.1 (3bf5ae0d25, 2021-09-20)" sodipodi:docname="LOGO-NO-TEXTk.svg" xmlns:inkscape="http://www.inkscape.org/namespaces/inkscape" xmlns:sodipodi="http://sodipodi.sourceforge.net/DTD/sodipodi-0.dtd" xmlns="http://www.w3.org/2000/svg" xmlns:svg="http://www.w3.org/2000/svg" style="">
  <sodipodi:namedview id="namedview7" pagecolor="#ffffff" bordercolor="#666666" borderopacity="1.0" inkscape:pageshadow="2" inkscape:pageopacity="0.0" inkscape:pagecheckerboard="0" inkscape:document-units="mm" showgrid="false" inkscape:zoom="1.0482005" inkscape:cx="384.94544" inkscape:cy="327.70448" inkscape:window-width="1920" inkscape:window-height="1017" inkscape:window-x="-8" inkscape:window-y="-8" inkscape:window-maximized="1" inkscape:current-layer="g911"/>
  <defs id="defs2"/>
  <g inkscape:label="Warstwa 1" inkscape:groupmode="layer" id="layer1">
    <g style="display:block" id="g911" transform="matrix(0.06614583,0,0,0.06614583,-3.6849105,-0.95075051)">
      <path fill="#1939fe" d="m 280.584,116.291 c 12.015,-1.207 34.112,-0.566 46.927,-0.542 l 83.158,0.093 277.119,-0.007 290.042,-0.055 90.78,-0.026 c 48.05,0 70.28,-3.543 113.1,23.755 27.91,18.01 48.82,45.025 59.26,76.558 3.05,9.486 5.38,22.174 7.57,32.163 3.32,-0.219 6.64,-0.355 9.96,-0.408 l 320.49,-0.025 87.73,-0.053 c 19.89,-0.008 49.38,-1.061 68.2,2.908 25.71,6.381 51.44,21.301 70.19,39.584 47.32,46.136 43.15,94.179 43.15,154.171 l -0.01,107.418 -0.02,386.686 c -0.22,42.684 -13.65,77.639 -43.92,108.169 -13.18,13.3 -45.6,33.65 -63.16,37.31 -31.51,6.57 -78.77,4.31 -111.72,4.31 l -165.17,-0.23 c 0.29,17.67 0.46,38.38 -0.17,55.99 26.76,-0.84 53.89,0.05 80.67,-0.41 6.47,-0.11 13.86,0.01 20.16,1.53 6.12,1.48 11.72,4.57 16.23,8.96 6.16,6 12.56,19.47 11.37,28.62 -3.31,25.37 7.92,66.66 -10.83,86.69 -12.05,12.88 -32.66,10.99 -48.19,10.83 l -479.54,0.08 c -15.61,-0.08 -23.65,0.61 -35.53,-11.43 -3.31,-3.36 -8.38,-10.53 -9.11,-15.15 -3.21,-20.28 -1.09,-44.93 -1.61,-65.44 0.03,-14.45 0.45,-22.98 11.07,-33.52 15.09,-14.98 35.04,-11.25 55.4,-11.16 l 61.84,0.41 c -0.25,-18.67 -0.24,-37.34 0.01,-56 -47.9,0.27 -95.8,0.27 -143.707,0 0.809,16.97 2.172,37.59 -11.303,49.82 -3.62,3.29 -10.314,8.46 -15.382,9.06 -17.308,2.06 -35.165,1.33 -52.608,1.33 l -91.589,-0.01 -327.24,0.04 c -17.888,0.03 -40.837,0.6 -58.816,-0.81 -4.123,-0.32 -13.55,-6.77 -16.779,-10.22 -10.931,-11.69 -11.419,-24.65 -11.003,-40.02 0.644,-19.63 -1.059,-40.55 1.62,-59.96 2.751,-11.4 15.937,-22.08 27.275,-24.38 10.931,-2.21 26.09,-1.35 37.43,-1.3 l 62.092,0.45 c -0.248,-18.668 -0.244,-37.339 0.012,-56.008 l -165.604,0.19 c -60.929,0.037 -109.971,9.316 -161.146,-29.939 -69.322,-53.176 -57.511,-126.892 -57.48,-203.092 l 0.033,-195.257 -0.039,-186.627 c -0.001,-22.407 0.893,-46.727 0.015,-68.954 -3.101,-78.519 48.54,-144.831 128.773,-156.092 z" id="path860"/>
      <path fill="#ddd2fe" d="m 296.721,152.413 c 3.546,-0.435 11.853,-0.449 15.75,-0.47 l 543.111,0.087 161.228,-0.056 c 20.46,-0.021 42.36,0.488 62.71,-0.029 82.25,-2.091 132.12,42.633 132.59,127.018 l -0.04,363.081 0.03,107.736 c 0,47.862 3.61,99.519 -32.79,136.862 -39.16,40.164 -102.09,33.413 -153.29,33.414 l -106.043,-0.042 -0.064,-95.995 196.057,-0.08 0.06,-575.975 -580.27,0.169 c 13.753,16.658 27.701,35.828 38.384,54.78 50.674,89.904 50.2,211.672 0.274,301.799 -11.64,21.013 -26.935,40.356 -41.547,59.298 -20.767,0.045 -63.025,1.277 -82.435,-1.412 4.83,-7.054 19.321,-21.227 25.89,-28.64 18.782,-21.193 29.055,-38.606 41.495,-63.318 17.686,-37.598 26.62,-78.715 26.13,-120.262 -1.788,-82.564 -34.34,-145.866 -92.702,-202.199 -17.527,-0.853 -40.554,-0.213 -58.424,-0.207 l -108.877,0.099 0.068,575.978 468.117,-0.061 c -0.02,0.836 -0.034,1.673 -0.041,2.509 l -0.115,77.024 c -0.047,55.985 -0.909,98.249 42.811,141.689 50.79,50.46 96.83,42.95 161.36,42.79 l -0.091,24.01 H 443.975 l -0.063,-63.99 128.061,-0.08 0.052,-127.976 -188.187,-0.002 c -29.543,0.009 -65.298,1.439 -94.256,-1.51 -21.985,-2.239 -44.838,-12.265 -62.176,-25.631 -21.727,-16.749 -37.194,-54.398 -38.579,-81.293 -1.681,-32.656 -0.802,-69.808 -0.802,-103.186 L 188.01,509.306 187.959,345.241 c -0.02,-29.706 -1.459,-62.126 1.658,-91.529 6.231,-58.779 48.974,-96.153 107.104,-101.299 z" id="path862"/>
      <path fill="#b9a5fe" d="m 897.431,284.384 c 21.335,-0.902 45.097,-0.367 66.696,-0.364 l 115.973,-0.014 c -0.75,30.987 -0.07,64.748 -0.07,95.959 l -196.1,0.052 0.069,576.054 831.991,-0.072 0.07,-576.082 -468.08,0.093 -0.04,-95.968 312.01,0.008 88.17,-0.046 c 47.78,-0.07 85.35,-3.452 125.23,28.003 27.7,22.972 38.55,63.359 38.6,98.085 0.17,121.666 0.12,243.336 0.11,365.003 l -0.01,111.119 c 0,37.051 2.81,63.878 -11.58,99.365 -32.38,79.861 -124.94,66.431 -195.58,66.401 l -176.96,0.04 0.07,128.05 128.11,-0.06 c -0.51,20.6 -0.07,43.2 -0.08,63.96 l -512.05,0.04 -0.04,-63.97 128.06,-0.04 0.06,-128.08 -188.381,0.01 c -29.236,0.01 -64.605,1.42 -93.259,-1.39 -22.354,-2.19 -45.768,-12.23 -63.323,-25.99 -21.524,-16.88 -36.851,-54.109 -38.221,-80.975 -1.699,-33.318 -0.825,-70.824 -0.826,-104.83 l -0.018,-199.944 -0.057,-162.364 c -0.026,-29.575 -1.418,-60.806 1.609,-90.124 6.162,-59.697 49.368,-96.979 107.847,-101.929 z" id="path864"/>
      <path fill="#ddd2fe" d="m 320.938,492.07 77.011,-0.116 c -0.912,24.637 -0.549,59.293 -0.018,84.055 l -77.064,-0.023 c 0.177,-27.971 0.2,-55.944 0.071,-83.916 z" id="path866"/>
      <path fill="#ddd2fe" d="m 320.938,336.072 77.011,-0.118 c -0.912,24.631 -0.55,59.299 -0.017,84.052 l -77.065,-0.018 c 0.177,-27.972 0.201,-55.944 0.071,-83.916 z" id="path868"/>
    </g>
  </g>
</svg>

<svg version="1.1" xmlns="http://www.w3.org/2000/svg" style="display: block;" viewBox="0 0 1996 1884" width="499" height="471" preserveAspectRatio="none">
<path transform="translate(0,0)" fill="rgb(25,57,254)" d="M 280.584 116.291 C 292.599 115.084 314.696 115.725 327.511 115.749 L 410.669 115.842 L 687.788 115.835 L 977.83 115.78 L 1068.61 115.754 C 1116.66 115.754 1138.89 112.211 1181.71 139.509 C 1209.62 157.519 1230.53 184.534 1240.97 216.067 C 1244.02 225.553 1246.35 238.241 1248.54 248.23 C 1251.86 248.011 1255.18 247.875 1258.5 247.822 L 1578.99 247.797 L 1666.72 247.744 C 1686.61 247.736 1716.1 246.683 1734.92 250.652 C 1760.63 257.033 1786.36 271.953 1805.11 290.236 C 1852.43 336.372 1848.26 384.415 1848.26 444.407 L 1848.25 551.825 L 1848.23 938.511 C 1848.01 981.195 1834.58 1016.15 1804.31 1046.68 C 1791.13 1059.98 1758.71 1080.33 1741.15 1083.99 C 1709.64 1090.56 1662.38 1088.3 1629.43 1088.3 L 1464.26 1088.07 C 1464.55 1105.74 1464.72 1126.45 1464.09 1144.06 C 1490.85 1143.22 1517.98 1144.11 1544.76 1143.65 C 1551.23 1143.54 1558.62 1143.66 1564.92 1145.18 C 1571.04 1146.66 1576.64 1149.75 1581.15 1154.14 C 1587.31 1160.14 1593.71 1173.61 1592.52 1182.76 C 1589.21 1208.13 1600.44 1249.42 1581.69 1269.45 C 1569.64 1282.33 1549.03 1280.44 1533.5 1280.28 L 1053.96 1280.36 C 1038.35 1280.28 1030.31 1280.97 1018.43 1268.93 C 1015.12 1265.57 1010.05 1258.4 1009.32 1253.78 C 1006.11 1233.5 1008.23 1208.85 1007.71 1188.34 C 1007.74 1173.89 1008.16 1165.36 1018.78 1154.82 C 1033.87 1139.84 1053.82 1143.57 1074.18 1143.66 L 1136.02 1144.07 C 1135.77 1125.4 1135.78 1106.73 1136.03 1088.07 C 1088.13 1088.34 1040.23 1088.34 992.323 1088.07 C 993.132 1105.04 994.495 1125.66 981.02 1137.89 C 977.4 1141.18 970.706 1146.35 965.638 1146.95 C 948.33 1149.01 930.473 1148.28 913.03 1148.28 L 821.441 1148.27 L 494.201 1148.31 C 476.313 1148.34 453.364 1148.91 435.385 1147.5 C 431.262 1147.18 421.835 1140.73 418.606 1137.28 C 407.675 1125.59 407.187 1112.63 407.603 1097.26 C 408.247 1077.63 406.544 1056.71 409.223 1037.3 C 411.974 1025.9 425.16 1015.22 436.498 1012.92 C 447.429 1010.71 462.588 1011.57 473.928 1011.62 L 536.02 1012.07 C 535.772 993.402 535.776 974.731 536.032 956.062 L 370.428 956.252 C 309.499 956.289 260.457 965.568 209.282 926.313 C 139.96 873.137 151.771 799.421 151.802 723.221 L 151.835 527.964 L 151.796 341.337 C 151.795 318.93 152.689 294.61 151.811 272.383 C 148.71 193.864 200.351 127.552 280.584 116.291 z"/>
<path transform="translate(0,0)" fill="rgb(221,210,254)" d="M 296.721 152.413 C 300.267 151.978 308.574 151.964 312.471 151.943 L 855.582 152.03 L 1016.81 151.974 C 1037.27 151.953 1059.17 152.462 1079.52 151.945 C 1161.77 149.854 1211.64 194.578 1212.11 278.963 L 1212.07 642.044 L 1212.1 749.78 C 1212.1 797.642 1215.71 849.299 1179.31 886.642 C 1140.15 926.806 1077.22 920.055 1026.02 920.056 L 919.977 920.014 L 919.913 824.019 L 1115.97 823.939 L 1116.03 247.964 L 535.76 248.133 C 549.513 264.791 563.461 283.961 574.144 302.913 C 624.818 392.817 624.344 514.585 574.418 604.712 C 562.778 625.725 547.483 645.068 532.871 664.01 C 512.104 664.055 469.846 665.287 450.436 662.598 C 455.266 655.544 469.757 641.371 476.326 633.958 C 495.108 612.765 505.381 595.352 517.821 570.64 C 535.507 533.042 544.441 491.925 543.951 450.378 C 542.163 367.814 509.611 304.512 451.249 248.179 C 433.722 247.326 410.695 247.966 392.825 247.972 L 283.948 248.071 L 284.016 824.049 L 752.133 823.988 C 752.113 824.824 752.099 825.661 752.092 826.497 L 751.977 903.521 C 751.93 959.506 751.068 1001.77 794.788 1045.21 C 845.578 1095.67 891.618 1088.16 956.148 1088 L 956.057 1112.01 L 443.975 1112.01 L 443.912 1048.02 L 571.973 1047.94 L 572.025 919.964 L 383.838 919.962 C 354.295 919.971 318.54 921.401 289.582 918.452 C 267.597 916.213 244.744 906.187 227.406 892.821 C 205.679 876.072 190.212 838.423 188.827 811.528 C 187.146 778.872 188.025 741.72 188.025 708.342 L 188.01 509.306 L 187.959 345.241 C 187.939 315.535 186.5 283.115 189.617 253.712 C 195.848 194.933 238.591 157.559 296.721 152.413 z"/>
<path transform="translate(0,0)" fill="rgb(185,165,254)" d="M 897.431 284.384 C 918.766 283.482 942.528 284.017 964.127 284.02 L 1080.1 284.006 C 1079.35 314.993 1080.03 348.754 1080.03 379.965 L 883.93 380.017 L 883.999 956.071 L 1715.99 955.999 L 1716.06 379.917 L 1247.98 380.01 L 1247.94 284.042 L 1559.95 284.05 L 1648.12 284.004 C 1695.9 283.934 1733.47 280.552 1773.35 312.007 C 1801.05 334.979 1811.9 375.366 1811.95 410.092 C 1812.12 531.758 1812.07 653.428 1812.06 775.095 L 1812.05 886.214 C 1812.05 923.265 1814.86 950.092 1800.47 985.579 C 1768.09 1065.44 1675.53 1052.01 1604.89 1051.98 L 1427.93 1052.02 L 1428 1180.07 L 1556.11 1180.01 C 1555.6 1200.61 1556.04 1223.21 1556.03 1243.97 L 1043.98 1244.01 L 1043.94 1180.04 L 1172 1180 L 1172.06 1051.92 L 983.679 1051.93 C 954.443 1051.94 919.074 1053.35 890.42 1050.54 C 868.066 1048.35 844.652 1038.31 827.097 1024.55 C 805.573 1007.67 790.246 970.441 788.876 943.575 C 787.177 910.257 788.051 872.751 788.05 838.745 L 788.032 638.801 L 787.975 476.437 C 787.949 446.862 786.557 415.631 789.584 386.313 C 795.746 326.616 838.952 289.334 897.431 284.384 z"/>
<path transform="translate(0,0)" fill="rgb(221,210,254)" d="M 320.938 492.07 L 397.949 491.954 C 397.037 516.591 397.4 551.247 397.931 576.009 L 320.867 575.986 C 321.044 548.015 321.067 520.042 320.938 492.07 z"/>
<path transform="translate(0,0)" fill="rgb(221,210,254)" d="M 320.938 336.072 L 397.949 335.954 C 397.037 360.585 397.399 395.253 397.932 420.006 L 320.867 419.988 C 321.044 392.016 321.068 364.044 320.938 336.072 z"/>
<path transform="translate(0,0)" fill="rgb(25,57,254)" d="M 667.833 1220.48 C 693.994 1219.62 714.286 1220.74 731.755 1242.67 C 745.656 1260.12 742.91 1278.2 743.071 1299.04 C 743.145 1308.55 743.369 1318.7 742.248 1328.06 C 802.529 1326.4 832.198 1321.26 873.781 1370.38 C 892.321 1346.69 919.694 1328.82 950.675 1328.16 C 997.847 1327.34 1045.1 1327.88 1092.29 1327.75 C 1100.87 1327.73 1109.87 1327.89 1117.49 1332.45 C 1140.74 1346.39 1149.95 1369.44 1147.73 1395.89 C 1147.45 1399.22 1145.86 1411.3 1146.55 1413.74 C 1155.32 1410.74 1179.82 1411.6 1189.95 1411.92 C 1203.82 1412.36 1217.73 1419.34 1226.75 1430.17 C 1232.21 1436.7 1235.98 1444.48 1237.71 1452.82 C 1239.72 1462.7 1239.23 1499.1 1238.98 1511.3 C 1238.61 1529.62 1240.11 1558.73 1238.51 1576.1 C 1244.91 1575.91 1251.18 1576.09 1257.57 1576.22 L 1257.37 1574.41 C 1255.71 1560.23 1256.93 1540.33 1256.82 1525.61 C 1257.05 1506.94 1256.4 1485.02 1256.68 1466.63 C 1257.34 1424.36 1289.37 1407.29 1327.89 1411.72 C 1347.56 1413.98 1354.28 1411.9 1369.45 1427.7 C 1388.99 1405.73 1418.79 1411.9 1445.88 1412.56 C 1507.2 1414.04 1569.09 1396.69 1610.41 1454.14 C 1633.45 1423.53 1658.4 1412.14 1696.41 1411.83 L 1754.96 1411.73 C 1767.45 1411.69 1793.68 1410.81 1804.41 1413.37 C 1813.47 1415.52 1821.75 1420.17 1828.3 1426.8 C 1849.96 1448.52 1849.97 1496.01 1828 1517.39 C 1821.87 1523.4 1814.33 1527.76 1806.07 1530.1 C 1793.5 1533.54 1735.97 1532.06 1719.39 1531.98 C 1719.53 1542.72 1719.77 1566.39 1718.54 1576.27 C 1742.79 1575.75 1768.2 1575.94 1792.5 1576.04 C 1807.73 1576.12 1820.48 1582.66 1830.37 1593.57 C 1850.96 1616.31 1849.17 1664.35 1825.03 1684.29 C 1819.38 1688.95 1811.63 1693.84 1804.24 1694.97 C 1784.48 1697.98 1763.79 1695.62 1743.83 1696.24 C 1724.88 1696.29 1704.58 1696.68 1685.9 1695.89 C 1662.15 1694.89 1639.57 1685.76 1623.74 1667.62 C 1607.25 1692.38 1593.36 1696.91 1564.4 1696.43 C 1544.8 1696.11 1530.79 1695.38 1516.17 1680.52 C 1509.48 1673.8 1504.82 1665.34 1502.72 1656.1 C 1500.24 1645.06 1501.21 1620.7 1501.2 1608.22 L 1501.28 1531.9 C 1494.3 1532.03 1486.95 1531.86 1479.94 1531.81 L 1479.9 1609.38 C 1479.91 1637.07 1484.61 1666.23 1460.43 1684.99 C 1439.68 1701.09 1409.72 1696.74 1385.69 1693.75 C 1383.63 1696.53 1384.13 1698.5 1383.8 1702.4 C 1376.3 1740.44 1347.9 1773.29 1308.75 1781.39 C 1280.53 1787.22 1245.76 1783.32 1216.15 1784.19 C 1196.61 1784.76 1166.75 1786.77 1148.09 1780.21 C 1122.47 1767.68 1113.45 1738.14 1117.3 1711.38 C 1120.16 1691.58 1128.45 1682.35 1143.71 1670.04 C 1137.86 1665.81 1131.26 1658.32 1126.58 1652.87 C 1121.05 1660.92 1111.84 1670.13 1104 1675.93 C 1091.02 1685.45 1076.02 1691.86 1060.16 1694.66 C 1038.88 1698.4 991.851 1695.41 967.242 1696.19 C 945.672 1694.54 912.652 1699.18 892.247 1695.64 C 857.021 1689.52 843.237 1645.49 850.784 1614.85 C 855.835 1594.35 864.359 1583.45 880.427 1573.42 L 879.624 1572.25 C 878.464 1571.89 877.077 1571.46 875.463 1570.97 C 871.719 1573.77 865.659 1579.75 862.52 1582.77 C 841.069 1604.26 819.536 1612.44 789.236 1612.24 C 754.144 1612.01 718.509 1612.33 683.371 1612.26 C 672.436 1612.24 660.765 1612.84 650.047 1610.46 C 642.247 1608.73 636.1 1603.58 630.569 1598.14 C 624.927 1605.48 616.085 1610.83 606.998 1611.46 C 587.26 1612.84 565.552 1612.13 545.643 1612.18 L 488.67 1612.29 C 477.474 1612.29 459.513 1612.72 449.047 1610.67 C 435.837 1608.02 423.427 1602.32 412.809 1594.03 C 397.71 1616.49 376.822 1612.55 353.032 1612.36 C 336.209 1612.17 319.386 1612.12 302.562 1612.18 L 228.585 1612.37 C 215.444 1612.4 201.945 1612.66 188.883 1611.82 C 174.51 1610.89 155.212 1591.61 153.923 1577.49 C 152.356 1560.34 152.991 1541.71 152.985 1524.41 L 152.962 1428.22 L 152.977 1336.69 C 152.982 1324.19 152.377 1299.19 153.889 1287.54 C 154.968 1279.76 158.143 1272.42 163.072 1266.3 C 171.631 1255.47 186.31 1244.35 200.233 1244.05 C 223.888 1243.75 246.365 1240.03 265.951 1256.06 C 291.451 1276.93 286.008 1306.68 285.919 1336.49 L 285.919 1434.01 C 285.921 1446.77 285.088 1472.25 286.247 1483.79 C 290.775 1484.74 304.873 1484.16 310.137 1484.27 C 330.061 1484.68 351.631 1483.27 371.371 1485.1 C 371.458 1483.57 371.588 1482.03 371.762 1480.5 C 373.709 1462.74 383.848 1445.18 397.888 1434.07 L 395.894 1431.54 C 380.335 1412.03 377.531 1389.29 383.673 1365.04 C 388.048 1347.77 406.899 1328.78 425.401 1328.2 C 460.739 1327.08 497.106 1328.01 532.536 1327.77 C 567.726 1327.28 586.414 1329.3 614.296 1352.17 C 613.413 1345.88 612.726 1332.99 613.238 1326.56 C 615.504 1298.05 605.588 1262.59 627.017 1239.65 C 639.649 1226.13 649.837 1221.67 667.833 1220.48 z M 742.393 1492.1 C 749.395 1492.06 757.138 1491.85 764.059 1492.19 C 763.805 1477.48 763.799 1462.76 764.04 1448.04 L 742.533 1448.21 C 742.943 1458.77 743.478 1482.17 742.393 1492.1 z"/>
<path transform="translate(0,0)" fill="rgb(185,165,254)" d="M 668.496 1258.16 C 684.873 1257.36 703.077 1255.86 704.784 1276.8 C 705.813 1289.42 705.565 1301.45 705.566 1314.07 C 705.501 1335.73 705.546 1357.4 705.698 1379.06 C 731.648 1358.13 737.687 1365.43 767.624 1364.01 C 873.328 1358.99 855.257 1447.32 853.004 1520.71 C 852.471 1538.09 837.835 1555.21 823.715 1565.04 C 804.756 1575.35 785.966 1576.13 764.754 1576.08 C 751.887 1576.05 738.941 1576.97 726.185 1575.01 C 714.764 1573.25 710.183 1565.13 704.401 1556.31 C 702.723 1561.78 700.896 1570.22 695.846 1573.11 C 688.222 1577.47 673.859 1576.45 665.45 1574.63 C 661.559 1573.79 654.696 1570.33 653.535 1566.69 C 652.18 1562.44 650.94 1553.03 650.917 1548.54 C 650.698 1505 650.78 1461.39 650.787 1417.85 C 650.794 1372.37 650.527 1326.82 651.007 1281.37 C 651.043 1277.97 651.52 1271.62 652.894 1268.59 C 656.038 1261.66 661.818 1260.43 668.496 1258.16 z M 742.393 1492.1 C 749.395 1492.06 757.138 1491.85 764.059 1492.19 C 763.805 1477.48 763.799 1462.76 764.04 1448.04 L 742.533 1448.21 C 742.943 1458.77 743.478 1482.17 742.393 1492.1 z"/>
<path transform="translate(0,0)" fill="rgb(25,57,254)" d="M 725.831 1412.22 C 742.022 1411.11 774.011 1408.6 788.774 1415.2 C 793.798 1417.45 796.004 1421.35 797.684 1426.43 C 802.159 1439.97 802.648 1507.02 795.992 1518.59 C 792.381 1524.87 785.549 1526.39 779.06 1527.92 C 762.906 1528.81 729.275 1532.02 715.198 1524.92 C 711.717 1523.16 709.438 1517.96 708.238 1514.48 C 704.17 1502.68 703.025 1432.33 708.372 1422.48 C 712.001 1415.79 719.069 1414 725.831 1412.22 z M 742.393 1492.1 C 749.395 1492.06 757.138 1491.85 764.059 1492.19 C 763.805 1477.48 763.799 1462.76 764.04 1448.04 L 742.533 1448.21 C 742.943 1458.77 743.478 1482.17 742.393 1492.1 z"/>
<path transform="translate(0,0)" fill="rgb(221,210,254)" d="M 969.643 1364.43 C 986.413 1362.95 1011.31 1364.38 1028.87 1363.97 C 1049.2 1364.22 1070.86 1363.64 1091.06 1364.13 C 1114.4 1364.7 1115.71 1406.91 1098.54 1416.54 C 1092.04 1420.18 1074.03 1419.09 1066.53 1419.05 L 1004.75 1418.77 C 993.048 1418.72 981.005 1418.31 969.369 1419.37 C 937.999 1422.21 945.873 1461.16 943.084 1483.53 L 942.915 1484.83 C 963.447 1484.01 1098.13 1481.35 1109.08 1486.43 C 1116.97 1496.71 1112.79 1591.27 1108.73 1605.66 C 1105.74 1616.2 1100.43 1625.95 1093.19 1634.18 C 1075.57 1653.94 1053.14 1658.25 1028.23 1659.77 C 1003.27 1660.28 978.005 1659.84 953.014 1660.01 C 937.284 1660.12 921.184 1660.06 905.46 1659.83 C 900.986 1659.7 896.155 1657.93 893.348 1654.27 C 884.325 1642.5 883.491 1615.19 898.54 1607.74 C 905.941 1604.08 922.524 1605.06 931.392 1605.1 L 993.245 1605.41 C 1005.41 1605.46 1018.09 1605.98 1030.17 1604.59 C 1062.6 1600.85 1052.93 1562.68 1056.27 1538.86 L 1056.53 1537.1 C 1036.64 1540.96 999.072 1538.35 977.158 1538.98 C 963.353 1539.38 896.927 1540.28 890.258 1535.99 C 887.466 1532.21 886.021 1526.65 886.119 1521.92 C 887.611 1450.36 870.973 1369.73 969.643 1364.43 z"/>
<path transform="translate(0,0)" fill="rgb(221,210,254)" d="M 1168.31 1448.27 C 1173.91 1447.89 1180.28 1447.73 1185.8 1448.88 C 1190.96 1449.95 1196.53 1452.66 1198.92 1457.63 C 1203.86 1467.87 1202 1484.16 1201.96 1495.36 C 1201.9 1512.89 1198.46 1592.78 1206.34 1603.58 C 1210.4 1609.13 1217.54 1611.12 1224.06 1611.84 C 1237.22 1613.29 1277.47 1615.26 1287.33 1606.26 C 1291.07 1602.84 1292.63 1596.89 1293.36 1592.07 C 1295.15 1580.25 1294.06 1567.05 1294 1555.07 C 1293.87 1528.09 1293.13 1500.96 1293.73 1474 C 1293.87 1467.28 1294.16 1458.63 1299.6 1453.88 C 1306.01 1448.28 1316.21 1447.64 1324.37 1448 C 1331.84 1448.33 1340.58 1449.61 1345.5 1455.89 C 1348.12 1459.22 1348.3 1469 1348.52 1473.22 C 1350.37 1507.79 1348.81 1543.28 1348.8 1577.94 C 1348.8 1611.82 1350.51 1646.74 1348.08 1680.49 C 1346.46 1703.07 1341.11 1717.84 1323.83 1732.92 C 1299.51 1750.15 1276.58 1747.81 1248.02 1748.01 C 1223.57 1747.97 1199.78 1748.28 1175.3 1747.85 C 1159.78 1747.58 1154.16 1737.94 1154.01 1723.05 C 1153.92 1713.31 1158.25 1707.15 1165.82 1701.42 C 1187.77 1699.03 1219.77 1700.34 1242.27 1700.45 C 1296.93 1700.73 1294.28 1696.43 1293.98 1645.24 C 1275.13 1660.77 1266.22 1660.57 1242.32 1660.12 C 1228.05 1659.85 1214.78 1660.72 1200.48 1657.73 C 1192.24 1656.1 1184.36 1653.03 1177.19 1648.66 C 1146.66 1629.68 1146.21 1596.76 1146.85 1564.54 C 1147.48 1532.82 1146.16 1500.77 1147 1469.07 C 1147.42 1453.55 1154.58 1450.33 1168.31 1448.27 z"/>
<path transform="translate(0,0)" fill="rgb(185,165,254)" d="M 438.576 1364.31 C 454.445 1363.2 470.951 1363.97 486.883 1363.96 C 506.663 1363.95 526.882 1363.08 546.568 1364.85 C 553.54 1365.48 560.363 1366.69 567.017 1368.89 C 583.538 1374.35 596.372 1384.78 604.133 1400.48 C 607.154 1406.6 609.265 1412.7 610.098 1419.48 C 611.932 1434.41 613.554 1556.56 609.88 1565.57 C 608.197 1569.69 603.497 1572.59 599.466 1573.97 C 591.543 1576.69 574.382 1577.67 567.011 1573.48 C 561.408 1570.29 560.334 1563.6 558.831 1557.88 C 555.641 1561.78 547.675 1571.27 543.737 1572.68 C 526.258 1578.95 470.095 1576.36 454.712 1572.27 C 420.171 1562.22 408.377 1538.8 408.193 1504.02 C 407.925 1453.4 447.627 1439.94 491.913 1440.84 C 520.007 1441.4 532.005 1435.82 557.245 1453.45 C 557.299 1446.04 557.947 1437.75 556.535 1430.46 C 555.277 1423.97 552.144 1418.33 546.135 1415.23 C 524.312 1403.95 444.108 1419.63 426.898 1407.75 C 421.608 1404.09 420.029 1398.94 419.106 1392.86 C 417.918 1385.04 418.5 1377.26 423.578 1370.82 C 427.878 1365.36 432.137 1365.08 438.576 1364.31 z"/>
<path transform="translate(0,0)" fill="rgb(25,57,254)" d="M 488.416 1480.36 C 495.077 1479.69 504.028 1479.85 511.079 1479.84 C 522.701 1480.1 540.724 1478.75 550.573 1485.81 C 560.883 1493.21 559.534 1514.8 551.636 1523.59 C 545.122 1530.84 541.008 1530.71 532.242 1531.71 C 516.295 1532.11 485.49 1534.76 471.391 1526.7 C 460.639 1520.56 459.145 1498.19 467.224 1488.99 C 473.989 1481.29 478.786 1481.38 488.416 1480.36 z"/>
<path transform="translate(0,0)" fill="rgb(221,210,254)" d="M 1441.46 1467.58 C 1461.68 1441.23 1466.97 1449.45 1495.54 1447.94 C 1540.73 1445.54 1585.27 1455.08 1591.37 1507.7 C 1594.18 1531.93 1591.72 1556.42 1592.49 1580.74 C 1592.82 1600.21 1592.89 1621.06 1592.3 1640.61 C 1591.59 1655.01 1582.62 1659.02 1569.61 1660.02 C 1531.16 1662.96 1537.74 1637.31 1537.78 1609.34 L 1537.91 1548.5 C 1538.05 1533.26 1542.42 1502.75 1523.86 1498.54 C 1504.89 1494.23 1473.98 1493.31 1454.98 1499.16 C 1451.06 1500.37 1446.95 1505.02 1445.93 1509.02 C 1439.41 1543.96 1445.05 1582.95 1443.39 1618.5 C 1442.72 1632.77 1447.48 1651.62 1432.19 1657.68 C 1422.76 1661.42 1391.36 1661.55 1390.26 1648.38 C 1387.95 1620.67 1388.89 1591.71 1388.89 1563.89 L 1388.92 1501.3 C 1388.93 1489.29 1388.71 1477.34 1389.4 1465.34 C 1390.2 1451.54 1400.41 1449.75 1411.67 1448.33 C 1432.08 1447.59 1436.62 1446.62 1441.46 1467.58 z"/>
<path transform="translate(0,0)" fill="rgb(185,165,254)" d="M 216.538 1280.39 C 228.977 1279.58 236.862 1281.02 246.099 1289.9 C 249.133 1304.24 248.226 1323.56 248.235 1338.7 L 248.246 1403.28 L 248.197 1473.82 C 248.178 1488.81 248.628 1507.86 246.914 1522.47 C 270.645 1520.41 300.157 1521.45 324.385 1521.24 C 338.716 1521.12 365.791 1520.57 378.726 1522.25 L 380.175 1523.5 C 396.697 1537.95 396.696 1574.3 371.25 1575.93 C 345.631 1576.11 207.255 1578.51 193.395 1573.74 C 189.162 1563.91 190.266 1537.27 190.254 1525.84 L 190.21 1460.78 L 190.208 1359.94 C 190.215 1341.44 190.053 1322.98 190.548 1304.48 C 191.068 1285.02 198.4 1282.14 216.538 1280.39 z"/>
<path transform="translate(0,0)" fill="rgb(221,210,254)" d="M 1700.25 1448.43 C 1717.51 1447.72 1783.85 1446.81 1797.82 1449.84 C 1800.59 1452.45 1803.11 1455.29 1804.72 1458.78 C 1807.8 1465.42 1808.18 1476.5 1805.48 1483.41 C 1803.34 1488.89 1799.21 1492.52 1793.65 1494.36 C 1786.24 1496.8 1777.65 1496.06 1769.96 1496 C 1752.27 1495.87 1708.96 1492.67 1695.35 1498.8 C 1690.46 1501 1686.62 1504.71 1684.82 1509.8 C 1681.34 1519.63 1681.22 1591.75 1685.68 1600.42 C 1688.8 1606.49 1695.04 1609.67 1701.43 1611.17 C 1726.77 1617.12 1773.82 1607 1797.35 1614.46 C 1797.67 1614.56 1797.98 1614.67 1798.3 1614.78 C 1814.01 1629.25 1809.38 1661.61 1785.38 1660.06 C 1727.15 1656.28 1635.35 1680.61 1628.9 1595.54 C 1627.54 1579.93 1628.9 1563.61 1628.21 1548.08 C 1625.75 1492.25 1635.05 1452.31 1700.25 1448.43 z"/>
</svg>
